X: 418
T: Bonaparte's Charge
B: jims roots
M:C|
L:1/8
Q: 1/4=100
K:D
V:1 
|: A2 | "D"d2d2 "A"e2de | "D"f2df "A"edBA | "D"d2d2 "A"e2de | "D"fa2b "A"a2A2 |
"D"d2d2 "A"fafe | "D"d2B2 "G"BcdB | "A"A2F2 "D"DEFD | "A"E2D2 "D"D2:|
|: AB | "D"A2F2 F2AB | A2D2 D2AB | A2F2 DEFD | "A"E2D2 "D"D2 :|
|: AB | "D"AA,F2 F2AB | AA,D2 D2AB | AA,F2 DEFD | "A"EA,D2 "D"D2 :|
% abcbook-tune_id 6298c245c7d3066f518633b6


% abcbook-boost 0
% abcbook-tablature 
% abcbook-transpose 
% abcbook-lastupdated 1654178373446
% abcbook-soundfonts 
% abcbook-repeats 1


